svgs/solid/cassette-tape.svg

<svg xmlns="http://www.w3.org/2000/svg" viewBox="0 0 576 512"><!-- Font Awesome Pro 6.0.0-alpha2 by @fontawesome - https://fontawesome.com License - https://fontawesome.com/license (Commercial License) --><path d="M416 384L448 480H128L160 384H416ZM576 96V432C576 458.51 554.51 480 528 480H481.73L446.357 373.88C442.002 360.814 429.773 352 416 352H159.998C146.225 352 133.998 360.813 129.643 373.879L94.27 480H48C21.49 480 0 458.51 0 432V96C0 60.654 28.654 32 64 32H512C547.346 32 576 60.654 576 96ZM176 224C176 206.375 161.625 192 144 192S112 206.375 112 224S126.375 256 144 256S176 241.625 176 224ZM336 224C336 212.719 338.305 202.055 341.879 192H234.121C237.695 202.055 240 212.719 240 224S237.695 245.945 234.121 256H341.879C338.305 245.945 336 235.281 336 224ZM464 224C464 206.375 449.625 192 432 192S400 206.375 400 224S414.375 256 432 256S464 241.625 464 224Z"/></svg>

<svg xmlns="http://www.w3.org/2000/svg" viewBox="0 0 576 512"><!--! Font Awesome Pro 6.0.0-alpha3 by @fontawesome - https://fontawesome.com License - https://fontawesome.com/license (Commercial License) --><path d="M416 384l32 96H128l32-96H416zM576 96v336c0 26.51-21.49 48-48 48h-46.27l-35.37-106.1C442 360.8 429.8 352 416 352H159.1c-13.77 0-26 8.813-30.36 21.88L94.27 480H48C21.49 480 0 458.5 0 432V96c0-35.35 28.65-64 64-64h448C547.3 32 576 60.65 576 96zM176 224c0-17.62-14.38-32-32-32s-32 14.38-32 32s14.38 32 32 32S176 241.6 176 224zM336 224c0-11.28 2.305-21.95 5.879-32H234.1C237.7 202.1 240 212.7 240 224S237.7 245.9 234.1 256h107.8C338.3 245.9 336 235.3 336 224zM464 224c0-17.62-14.38-32-32-32s-32 14.38-32 32s14.38 32 32 32S464 241.6 464 224z"/></svg>
